svgs/light/circle-g.svg

<svg xmlns="http://www.w3.org/2000/svg" viewBox="0 0 512 512"><!-- Font Awesome Pro 6.0.0-alpha2 by @fontawesome - https://fontawesome.com License - https://fontawesome.com/license (Commercial License) --><path d="M368 256H293.344C284.5 256 277.344 263.156 277.344 272S284.5 288 293.344 288H346.938C341.594 301.406 333.344 314.422 323.875 323.891C287.625 360.141 224.375 360.141 188.125 323.891C170 305.75 160 281.641 160 256S170 206.25 188.125 188.109C224.125 152.063 282.125 150.469 319.969 184.438C326.562 190.328 336.687 189.813 342.562 183.188C348.469 176.609 347.906 166.5 341.344 160.594C290.75 115.297 213.531 117.469 165.5 165.484C115.594 215.391 115.594 296.609 165.5 346.516C189.656 370.688 221.812 384 256 384S322.344 370.688 346.5 346.516C364.781 328.234 379.062 301.125 383.75 275.734C383.906 274.781 384 272.969 384 272C384 263.156 376.844 256 368 256ZM256 16C123.451 16 16 123.451 16 256S123.451 496 256 496S496 388.549 496 256S388.549 16 256 16ZM256 464C141.309 464 48 370.691 48 256S141.309 48 256 48S464 141.309 464 256S370.691 464 256 464Z"/></svg>

<svg xmlns="http://www.w3.org/2000/svg" viewBox="0 0 512 512"><!--! Font Awesome Pro 6.3.0 by @fontawesome - https://fontawesome.com License - https://fontawesome.com/license (Commercial License) Copyright 2023 Fonticons, Inc. --><path d="M256 0C114.6 0 0 114.6 0 256s114.6 256 256 256s256-114.6 256-256S397.4 0 256 0zM256 480c-123.5 0-224-100.5-224-224s100.5-224 224-224s224 100.5 224 224S379.5 480 256 480zM368 256h-74.66c-8.844 0-16 7.156-16 16s7.156 16 16 16h53.59c-5.344 13.41-13.59 26.42-23.06 35.89c-36.25 36.25-99.5 36.25-135.8 0C169.1 305.8 160 281.6 160 256s9.1-49.75 28.12-67.89c36-36.05 94-37.64 131.8-3.672c6.594 5.891 16.72 5.375 22.59-1.25c5.906-6.578 5.344-16.69-1.219-22.59c-50.59-45.3-127.8-43.13-175.8 4.891c-49.91 49.91-49.91 131.1 0 181C189.7 370.7 221.8 384 256 384s66.34-13.31 90.5-37.48c18.28-18.28 32.56-45.39 37.25-70.78C383.9 274.8 384 272.1 384 272C384 263.2 376.8 256 368 256z"/></svg>
